X: 91
T: Mai bianshi
%%abc-version 2.0
%%abcx-abcm2ps-target-version 5.9.1 (29 Sep 2008)
%%abc-creator hum2abc beta
%%abcx-conversion-date 2013/10/02 07:52:29
%%abc-edited-by Helmut Schaffrath
%%humdrum-veritas 2880502071
%%humdrum-veritas-data 3030400263
%%continueall 1
%%barnumbers 0
L: 1/16
M: 2/4
K: Bb
d' f' d' c'b4 [I:setbarnb 1]| 
d' f' d' c'b4 | 
c'2> a2 c'3 d' | 
g2 f gb4 | 
d'2 b c' d'2 d'2 | 
b g b c'd'4 | 
f d f g2< d'2 b | 
c'2> g2f4 | 
b g b c'd'4 | 
f d f g2< d'2 b | 
c'2> g2f4 |]  



